X:1
T:Title
%%score ( 1 2 ) { 3 | 4 }
L:1/8
Q:1/4=113
M:4/4
K:Bb
V:1 treble nm="Grand Piano, Soprano"
V:2 treble 
V:3 bass nm="Choir Pad, Hanalei Bay, SMD"
V:4 bass 
V:1
 [DF]2 [DF]2 [Fd]2 [Fc]2 | [FB]2 B4 A2 | [EG]2 [EF]2 [EF]2 [EG]2 | [EA]2 [DB]6 | %4
w: By~George~Coles~Stebbins,~1879 * * *||||
 [FB]2 [FB]2 [FA]2 [FA]2 | [Fc]2 [Fc]2 [FB]2 [FB]2 | [Fd]2 [Fc]2 [Fc]2 [=EB]2 | [=EG]2 F2 D2 _E2 | %8
w: ||||
 [EF]2 [CF]2 [DG]2 [EA]2 | [Ec]2 B4 F2 | [DF]2 [EG]2 [FA]2 [FB]2 | [Fd]2 [Fc]6 | %12
w: ||||
 [Fc]2 [Fd]2 [Ec]2 [DB]2 | [DF]2 [FB]2 [^FA]2 G2 | [EG]2 [DF]2 [DF]2 [EF]2 | [EF]2 [DF]6- | %16
w: ||||
 [DF]2 z2 z4 |] %17
w: |
V:2
 x8 | z2 F6 | x8 | x8 | x8 | x8 | x8 | x8 | x8 | z2 D6 | x8 | x8 | x8 | x8 | x8 | x8 | x8 |] %17
V:3
 F,2 F,2 B,2 E2 | D2 D4 C2 | B,2 A,2 A,2 B,2 | C2 B,6 | D2 D2 C2 C2 | E2 E2 D2 D2 | %6
 B,2 A,2 A,2 G,2 | B,2 A,2 B,2[K:treble] C2 | C2 A,2 B,2 C2 | A,2 B,6 | B,2 B,2 C2 B,2 | B,2 A,6 | %12
 A,2 B,2 F,2 F,2 | B,2 B,2 C2 B,2 | B,2 B,2 A,2 G,2 | A,2 B,6- | B,2 z2 z4 |] %17
V:4
 B,,2 B,,2 B,,2 B,,2 | B,,2 F,6 | F,2 F,2 F,2 F,2 | F,2 B,,6 | B,,2 F,2 F,2 F,2 | %5
 F,2 B,,2 B,,2 B,,2 | B,,2 C,2 C,2 C,2 | C,2 F,6 | F,2 F,2 F,2 F,2 | F,2 B,,6 | B,,2 E,2 E,2 D,2 | %11
 B,,2 F,6 | F,2 B,,2 B,,2 B,,2 | B,,2 D,2 D,2 E,2 | E,2 F,2 F,2 F,2 | F,2 B,,6- | B,,2 z2 z4 |] %17

